X: 1
T: Nonesuch
C: Trad
R: Playford
M: 2/4
L: 1/8
K:Ador
Q:1/4=80
Z: ABC transcription by Verge Roller
r: 16
|: e | "Am" ec "G" de | "Am" cB/2c/2 Ae | "Am" ec "G" de | "Am" c2 A :|
|: B | "G" BG AB | "Am" cB/2c/2 AB | "G" BG AB | "Am" c2 A :|
